Obsidian-SemiLight/actions/22s/path-effect-parameter-next.svg

<svg viewBox="0 0 22 22" xmlns="http://www.w3.org/2000/svg"><path d="m16 3v3h3v-3zm1 1h1v1h-1zm-2.392578 10c.0295-.016-.607422.609375-.607422.609375l1.904297 1.890625-1.873047 1.935547.576172.564453 2.392578-2.5zm3.392578 0v5h1v-5zm-15 2v3h3v-3zm1 1h1v1h-1z" fill="#4d4d4d"/><path d="m16 4a12 12 0 0 0 -12 12h1a11 11 0 0 1 11-11z" fill="#3daee9"/></svg>

<svg xmlns="http://www.w3.org/2000/svg" viewBox="0 0 22 22">
  <defs id="defs3051">
    <style type="text/css" id="current-color-scheme">
      .ColorScheme-Text {
        color:#4d4d4d;
      }
      .ColorScheme-Highlight {
        color:#3daee9;
      }
      </style>
  </defs>
 <path 
     style="fill:currentColor;fill-opacity:1;stroke:none" 
     d="M 16 3 L 16 6 L 19 6 L 19 3 L 16 3 z M 17 4 L 18 4 L 18 5 L 17 5 L 17 4 z M 14.607422 14 C 14.636922 13.984 14 14.609375 14 14.609375 L 15.904297 16.5 L 14.03125 18.435547 L 14.607422 19 L 17 16.5 L 14.607422 14 z M 18 14 L 18 19 L 19 19 L 19 14 L 18 14 z M 3 16 L 3 19 L 6 19 L 6 16 L 3 16 z M 4 17 L 5 17 L 5 18 L 4 18 L 4 17 z "
     class="ColorScheme-Text"
     />
 <path 
     style="fill:currentColor;fill-opacity:1;stroke:none" 
     d="M 16 4 A 12 12 0 0 0 4 16 L 5 16 A 11 11 0 0 1 16 5 L 16 4 z "
     class="ColorScheme-Highlight"
     />
</svg>
